mobile/24/svg/eye-slash-24.svg

<svg width="24" height="24" viewBox="0 0 24 24" fill="none" xmlns="http://www.w3.org/2000/svg">
<path fill-rule="evenodd" clip-rule="evenodd" d="M8.2266 5.98916L4.48768 2.25024L3.25024 3.48768L6.57316 6.81059C4.61484 8.00622 3.04523 9.83354 2.19895 12.0651C2.12395 12.2651 2.12395 12.4861 2.19895 12.6861C3.73995 16.7501 7.67895 19.4811 12 19.4811C14.0182 19.4811 15.9504 18.8829 17.5952 17.8327L20.5122 20.7497L21.7497 19.5122L19 16.7626L19.004 16.7591L17.783 15.5381L17.779 15.5416L15.3037 13.0662L15.305 13.0599L11.315 9.06995L11.3087 9.07126L9.59914 7.36171L9.60495 7.36006L8.23195 5.98706L8.2266 5.98916ZM13.2152 13.4527L10.9223 11.1597C10.5868 11.4576 10.375 11.892 10.375 12.3749C10.375 13.2709 11.104 13.9999 12 13.9999C12.4829 13.9999 12.9173 13.7882 13.2152 13.4527ZM8.625 12.3749C8.625 11.4092 9.03229 10.5372 9.68416 9.92159L7.83938 8.07682C6.1336 8.99967 4.75461 10.4887 3.95995 12.3751C5.33595 15.6401 8.45595 17.7311 12 17.7311C13.5691 17.7311 15.054 17.32 16.3416 16.579L14.4531 14.6906C13.8376 15.3426 12.9658 15.7499 12 15.7499C10.139 15.7499 8.625 14.2359 8.625 12.3749Z" fill="black"/>
<path d="M11.427 7.06104C11.4948 7.05643 11.5622 7.04979 11.6297 7.04315C11.7523 7.0311 11.8749 7.01904 12 7.01904C15.544 7.01904 18.664 9.11004 20.04 12.375C19.72 13.133 19.298 13.821 18.807 14.441L20.043 15.677C20.778 14.796 21.38 13.792 21.8 12.685C21.875 12.485 21.875 12.264 21.8 12.064C20.26 8.00004 16.321 5.26904 12 5.26904C11.274 5.26904 10.561 5.35204 9.86597 5.50004L11.427 7.06104Z" fill="black"/>
<path d="M14.526 10.16C14.429 10.049 14.325 9.946 14.215 9.849L14.526 10.16Z" fill="black"/>
</svg>

<svg width="24" height="24" fill="none" xmlns="http://www.w3.org/2000/svg"><path fill-rule="evenodd" clip-rule="evenodd" d="m8.227 5.99-3.74-3.74L3.25 3.488 6.573 6.81A10.552 10.552 0 0 0 2.2 12.065a.885.885 0 0 0 0 .621C3.74 16.75 7.679 19.481 12 19.481c2.018 0 3.95-.598 5.595-1.648l2.917 2.917 1.238-1.238-2.75-2.75.004-.003-1.221-1.22-.004.003-2.475-2.476.001-.006-3.99-3.99-.006.001-1.71-1.71h.006L8.232 5.986l-.005.002zm4.988 7.463-2.293-2.293a1.622 1.622 0 0 0-.547 1.215c0 .896.729 1.625 1.625 1.625.483 0 .917-.212 1.215-.547zm-4.59-1.078c0-.966.407-1.838 1.06-2.453L7.838 8.077a8.7 8.7 0 0 0-3.88 4.298C5.337 15.64 8.457 17.731 12 17.731c1.57 0 3.054-.411 4.342-1.152l-1.889-1.888A3.365 3.365 0 0 1 12 15.75a3.379 3.379 0 0 1-3.375-3.375z" fill="#000"/><path d="M11.427 7.061c.068-.005.135-.011.203-.018.122-.012.245-.024.37-.024 3.544 0 6.664 2.091 8.04 5.356a8.909 8.909 0 0 1-1.233 2.066l1.236 1.236a10.466 10.466 0 0 0 1.757-2.992.885.885 0 0 0 0-.621C20.26 8 16.321 5.269 12 5.269c-.726 0-1.439.083-2.134.231l1.561 1.561z" fill="#000"/><path d="M14.526 10.16a3.381 3.381 0 0 0-.311-.311l.311.311z" fill="#000"/></svg>
